X: 1
T: Dancing Waves
C: Cal Howard
R: waltz
Z: 2018 John Chambers <jc:trillian.mit.edu>
N: No keysig; B flats written as ^A
M: 3/4
L: 1/8
K: F
[|\
"F"cB dc Bc | FE "C7"GF EF | "F"C4 A2 | A6 | "C7"cB dc Bc | FE AG FG |
"C7"G6- | "F"A6 | "C7"e4 d2 | c4 B2 | "F"AG F4- | F4 A2 |
"C7"c4 G2 | c4 ^G2 | "F"A6- | A4 c2 | "C7"e4 d2 | c4 B2 | "F"AG F4- | F4 A2 |
"C"G4 c2 | "G"d2 A2 B2 | "C"c6- | "C7"c6 | "F"cB dc Bc | FE GF EF |
"F"C4 {A}A2 | cB dc Bc | FE GF EF | "Bb"d6- | d6 |
"Dm"f2 f3 e | g2 f2 d2 | "F"c2 c3 B | d2 c2 A2 | "C7"B2 c2 B2 | A4 G2 | "F"F6- | F6 |]

%%sep 1 1 500

